X:1
T:Waynesboro
L:1/8
M:4/4
I:linebreak $
K:G
V:1 treble nm="Voice" snm="Voice"
V:1
 (3DEF GA BAdd | edgd ed B2 | A3 B AGED | (3EFG AB A2 D2- |$"G" DEGA Bdef | gage dBAd | BGAG EGDG | %7
 EG- [GB]2 [GB]4 :: z2 z2 z2 ga |$ b2 bg a2 af | gage d2 B2 | Aa-aa- abag | (3efg ab aeg |$ %13
 b2 bg a2 af | gage dBAd | BGAG EGDG | EG [GB]2 [GB]4 :| %17
